X: 4
T: The Wren
R: reel
M: 4/4
L: 1/8
K: Amin
|: Ae ed/e/ | f>e d/c/B/c/ | dB ed/c/ |1 B/c/A/B/ c>B :|2 B/A/c/B/ A2 :|AA Bc/B/ | A>A BB/c/ | dB ed/c/ |1 B/c/A/B/ c>B :|2 B/A/c/B/ A2 :|


Tune 2828	Setting 16033

